!!!!SEGMENT: pl-cz--d-ii-29--007_elsner-jozef--msza-f-op-35-agnus-dei.krn
!!!cenid: 18xx:185
!!!COM: Elsner, Józef
!!!COM-rismid: pe30000957
!!!CDT: 1769/06/01-1854/04/18
!!!CNT: Polish
!!!OPR: Msza F op. 35
!!!OTL: Agnus Dei
!!!OMV: 007
!!!PDT:
!!!AGN: Sacred; Mass
!!!SMS-siglum: PL-CZ
!!!SMS-shelfmark: D II-29
!!!SMS-shelfwork: 001-007 M
!!!NIFC-rismid:
!!!URL-scan: http://repozytorium.nifc.pl/skany/pl-cz-nut--dii-29
!!!ONB-nifc: UWAGA: części Mszy: Kyrie, Gloria, Graduale, Credo, Offertorium, Sanctus, Agnus Dei
**kern	**kern	**dynam	**kern	**text	**text	**text	**text	**dynam	**kern	**text	**dynam	**kern	**text	**dynam	**kern	**text	**dynam
*part5	*part5	*part5	*part4	*part4	*part4	*part4	*part4	*part4	*part3	*part3	*part3	*part2	*part2	*part2	*part1	*part1	*part1
*staff6	*staff5	*	*staff4	*staff4	*staff4	*staff4	*staff4	*	*staff3	*staff3	*	*staff2	*staff2	*	*staff1	*staff1	*
*Iorgan	*Iempty	*	*Ibass	*	*	*	*	*	*Itenor	*	*	*Ialto	*	*	*Ivox	*	*
*I"ORGAN	*	*	*I"BASSO	*	*	*	*	*	*I"TENORE	*	*	*I"ALTO	*	*	*I"CANTO	*	*
*I'Org	*	*	*I'B	*	*	*	*	*	*I'T	*	*	*I'A	*	*	*I'C	*	*
*group2	*group2	*	*group1	*	*	*	*	*	*group1	*	*	*group1	*	*	*group1	*	*
*clefF4	*clefG2	*	*clefF4	*	*	*	*	*	*clefC4	*	*	*clefC3	*	*	*clefC1	*	*
*k[b-]	*k[b-]	*	*k[b-]	*	*	*	*	*	*k[b-]	*	*	*k[b-]	*	*	*k[b-]	*	*
*F:	*F:	*	*F:	*	*	*	*	*	*F:	*	*	*F:	*	*	*F:	*	*
*M3/4	*M3/4	*	*M3/4	*	*	*	*	*	*M3/4	*	*	*M3/4	*	*	*M3/4	*	*
=1	=1	=1	=1	=1	=1	=1	=1	=1	=1	=1	=1	=1	=1	=1	=1	=1	=1
*^	*	*	*	*	*	*	*	*	*	*	*	*	*	*	*	*	*
!	!	!LO:TX:a:B:t=Andantino	!	!	!	!	!	!	!	!	!	!	!	!	!	!LO:TX:a:B:t=Andantino	!	!
4c/	2.F\	4a/	.	4F\	1) Dzie-	2) Pa-	3) Nie-	4.) Bo-	.	4c\	1) Dzie-	.	4f\	1.) Dzie-	.	4a/	1.) Dzie-	.
4A/	.	4f/	.	4F\	-ci	-nem	-chay	-ży	.	4A\	-ci	.	4f\	-ci	.	4f/	-ci	.
4d/	.	4b-/	.	4F\	nie-	ty	w_Chry-	Ba-	.	4d\	nie-	.	4f\	nie-	.	4b-\	nie-	.
=2	=2	=2	=2	=2	=2	=2	=2	=2	=2	=2	=2	=2	=2	=2	=2	=2	=2	=2
4.c/	2.F\	4.a/	.	4F\	-go-	na-	-stu-	-ran-	.	4.c\	-go-	.	4f\	-go-	.	4.a\	-go-	.
.	.	.	.	4F\	-dne	-szym	-sa	-ku	.	.	.	.	4f\	-dne	.	.	.	.
8B-/	.	(8g/	.	.	.	.	.	.	.	8B-\	-dne	.	.	.	.	8g\	-dne	.
8A/L	.	8f/L	.	4F\	tak	i	i-	coś	.	8A\L	tak	.	4f\	tak	.	8f/L	tak	.
8c/J	.	8a/J)	.	.	.	.	.	.	.	8c\J	.	.	.	.	.	8a/J	.	.
=3	=3	=3	=3	=3	=3	=3	=3	=3	=3	=3	=3	=3	=3	=3	=3	=3	=3	=3
!	!	!LO:TX:a:t=problem:ołówkiem przekreślony druk i dopisana oktawa c-c1	!	!	!	!	!	!	!	!	!	!	!	!	!	!	!	!
2.c/	2.F\	4.e/ 4.g	.	4C/	wiel-	oy-	-dzie-	zma-	.	4c\	wiel-	.	4.e\	wiel-	.	4.g\	wiel-	.
.	.	.	.	4C/	-kiey	-cem	-my	-zał	.	4c\	-kiey	.	.	.	.	.	.	.
.	.	8f/L 8a	.	.	.	.	.	.	.	.	.	.	8f\	-kiey	.	8a\	-kiey	.
.	.	8g/ 8b-	.	4C/	o-	na	przy-	grzech	.	4c\	o-	.	8g\L	o-	.	8b-\L	o-	.
.	.	8e/J 8cc	.	.	.	.	.	.	.	.	.	.	8e\J	.	.	8cc\J	.	.
=4	=4	=4	=4	=4	=4	=4	=4	=4	=4	=4	=4	=4	=4	=4	=4	=4	=4	=4
!	!	!LO:TX:a:t=problem:ołówkiem przekreślona kropka i dopisana w 1. głosie nuta a na 3. miarę	!	!	!	!	!	!	!	!	!	!	!	!	!	!	!	!
2.c/	2F\	8g/L 8b-	.	4F\	-fia-	wie-	-kła-	Swia-	.	4c\	-fia-	.	8g\L	-fia-	.	8b-\L	-fia-	.
.	.	8f/J 8a	.	.	.	.	.	.	.	.	.	.	8f\J	.	.	8a\J	.	.
.	.	4f/ 4a	.	4F\	-ry	-ki	-dy	-ta	.	4c\	-ry	.	4f\	-ry	.	4a\	-ry	.
.	4E\	4c#X/ 4g 4a	>	4r	.	.	.	.	.	4r	.	.	4r	.	.	4r	.	.
*v	*v	*	*	*	*	*	*	*	*	*	*	*	*	*	*	*	*	*
=5	=5	=5	=5	=5	=5	=5	=5	=5	=5	=5	=5	=5	=5	=5	=5	=5	=5
2D\	2.d/ 2.f 2.a	]	2D\ 2d	Z_twe-	Cho-	Czy-	A-	.	2d\	Z_twe-	.	2f\	Z_twe-	.	2a\	Z_twe-	.
4C\	.	.	4C\ 4c	-go	-ciaz	-li	-by	.	4d\	-go	.	4f\	-go	.	4a\	-go	.
=6	=6	=6	=6	=6	=6	=6	=6	=6	=6	=6	=6	=6	=6	=6	=6	=6	=6
2BBn/	2d/ 2f [2g	>	2BBn\ 2Bn	sto-	sła-	w_szczę-	lud	>	2d\	sto-	>	2f\	sto-	>	2g\	sto-	>
.	.	]	.	.	.	.	.	]	.	.	]	.	.	]	.	.	]
4BB-X/	4c/ 4e 4g]	p	4BB-X\ 4B-X	-łu	-bi	-ściu	twóy	p	4c\	-łu	p	4e\	-łu	p	4g\	-łu	p
=7	=7	=7	=7	=7	=7	=7	=7	=7	=7	=7	=7	=7	=7	=7	=7	=7	=7
*	*^	*	*	*	*	*	*	*	*	*	*	*	*	*	*	*	*
4AA/	4c/ 4f	4ryy	]	(4AA/ 4A	da-	po-	czy	żył	.	2c\	da-	.	(4f\	da-	.	(4f\	da-	.
4GG/	4e/ 4g	2c\	.	4GG/) 4G	.	.	.	.	.	.	.	.	4e\)	.	.	4g\)	.	.
4FF/	4f/ 4a	.	.	4FF/ 4F	-ry	-błą-	w_nie-	bez-	.	4c\	-ry	.	4f\	-ry	.	4a\	-ry	.
=8	=8	=8	=8	=8	=8	=8	=8	=8	=8	=8	=8	=8	=8	=8	=8	=8	=8	=8
2C/	8.f/L 8.a	4c\	.	4C/	bio-	-dzie-	-do-	-pie-	.	4c\	bio-	.	8.f\L	bio-	.	8.a\L	bio-	.
.	16e/Jk 16g	.	.	.	.	.	.	.	.	.	.	.	16e\Jk	.	.	16g\Jk	.	.
.	8e/L 8g	4ryy	.	4C/	-rą	-my	-li	-czny	.	4c\	-rą	.	4e\	-rą	.	4g\	-rą	.
.	(8d#X/ 8f#X	.	.	.	.	.	.	.	.	.	.	.	.	.	.	.	.	.
4r	8g/	4e\	.	4r	.	.	.	.	.	4r	.	.	4r	.	.	4r	.	.
.	8g#X/J)	.	.	.	.	.	.	.	.	.	.	.	.	.	.	.	.	.
*	*v	*v	*	*	*	*	*	*	*	*	*	*	*	*	*	*	*	*
!LO:LB:g=original	!LO:LB:g=original	!	!	!LO:LB:g=original	!	!	!	!	!	!LO:LB:g=original	!	!	!LO:LB:g=original	!	!	!	!LO:LB:g=original
=9	=9	=9	=9	=9	=9	=9	=9	=9	=9	=9	=9	=9	=9	=9	=9	=9	=9
*^	*	*	*	*	*	*	*	*	*	*	*	*	*	*	*	*	*
4c/	2.F\	4f/ 4a	.	4F\	Rę-	Prze-	On	U-	.	4c\	Rę-	.	4f\	Rę-	.	4a\	Rę-	.
4A/	.	4f/	.	4F\	-ce	-cie	nam	-twierdz	.	4A\	-ce	.	4f\	-ce	.	4f/	-ce	.
4d/	.	4b-/	.	4F\	do	z pod	po-	w_nas	.	4d\	do	.	4f\	do	.	4b-\	do	.
=10	=10	=10	=10	=10	=10	=10	=10	=10	=10	=10	=10	=10	=10	=10	=10	=10	=10	=10
4.c/	2.F\	4.a/	.	4F\	Oy-	two-	-ka-	wia-	.	4.c\	Oy-	.	4f\	Oy-	.	4.a\	Oy-	.
.	.	.	.	4F\	-ca	-iey	-zał	-rę	.	.	.	.	4f\	-ca	.	.	.	.
8B-/	.	8g/	.	.	.	.	.	.	.	8B-\	-ca	.	.	.	.	8g\	-ca	.
8A/L	.	8f/L	.	4F\	u-	nie-	i	i	.	8A\L	u-	.	4f\	u-	.	8f\L	u-	.
8c/J	.	8a/J	.	.	.	.	.	.	.	8c\J	.	.	.	.	.	8a\J	.	.
=11	=11	=11	=11	=11	=11	=11	=11	=11	=11	=11	=11	=11	=11	=11	=11	=11	=11	=11
2.c\	2.C\	4.e/ 4.g	.	4C/	-no-	-wyj-	wzo-	mi-	.	4c\	-no-	.	4.e\	-no-	.	4.g\	-no-	.
.	.	.	.	4C/	-szą	-dziem	-ry	-łość	.	4c\	-szą	.	.	.	.	.	.	.
.	.	8f/ 8a	.	.	.	.	.	.	.	.	.	.	8f\	-szą	.	8a\	-szą	.
.	.	8g/L 8b-	.	4C/	po	o-	i	dla	.	4c\	po	.	8g\L	po	.	8b-\L	po	.
.	.	8e/J 8cc	.	.	.	.	.	.	.	.	.	.	8e\J	.	.	8cc\J	.	.
=12	=12	=12	=12	=12	=12	=12	=12	=12	=12	=12	=12	=12	=12	=12	=12	=12	=12	=12
!LO:N:vis=2	!	!	!	!	!	!	!	!	!	!	!	!	!	!	!	!	!	!
4.c/	4F\	(8g/L 8b-	.	4F\	da-	-pie-	sła-	bra-	.	4c\	da-	.	8g\L	da-	.	8b-\L	da-	.
.	.	8f/J 8a	.	.	.	.	.	.	.	.	.	.	8f\J	.	.	8a\J	.	.
*	*	*^	*	*	*	*	*	*	*	*	*	*	*	*	*	*	*	*
!	!	!	!LO:N:vis=2.	!	!	!	!	!	!	!	!	!	!	!	!	!	!	!	!
.	8F\L	8a/L)	2f\	.	4F\	-ry	-ki	-dy	-ta	.	4c\	-ry	.	4f\	-ry	.	4a\	-ry	.
8F/L	(8FF\	8a/	.	.	.	.	.	.	.	.	.	.	.	.	.	.	.	.	.
8G/	8GG\	8b-/	.	.	4r	.	.	.	.	.	4r	.	.	4r	.	.	4r	.	.
8G#X/J	8GG#X\J	8bn/J	.	.	.	.	.	.	.	.	.	.	.	.	.	.	.	.	.
=13	=13	=13	=13	=13	=13	=13	=13	=13	=13	=13	=13	=13	=13	=13	=13	=13	=13	=13	=13
*	*	*	*	*	*^	*	*	*	*	*	*	*	*	*	*	*	*	*	*
!	!	!	!	!	!	!	!	!	!	!	!	!	!	!	!LO:TX:a:t=problem: nie ma ćwierćnuty na sylabę "z uf-"	!	!	!	!	!
2.A/	2.AA/)	2cc/	2.f\	.	2A\	2AA\	J	Gdy	Jak	Day	.	2f\	J	.	2.f\	J  z_u-	.	2cc\	J	.
.	.	4cc#X/	.	.	4A\	4AA\	z_u-	cię	żyć	nam	.	8f\L	z_u-	.	.	.	.	4cc\	z_u-	.
.	.	.	.	.	.	.	.	.	.	.	.	8e\J	.	.	.	.	.	.	.	.
*	*	*v	*v	*	*	*	*	*	*	*	*	*	*	*	*	*	*	*	*	*
=14	=14	=14	=14	=14	=14	=14	=14	=14	=14	=14	=14	=14	=14	=14	=14	=14	=14	=14	=14
2.B-/	2.BB-/	2f/ 2dd	.	2B-\	2BB-\	-fno-	po-	we-	po-	.	2d\	-fno-	.	2f\	-fno-	.	(4.dd\	-fno-	.
.	.	.	.	.	.	.	.	.	.	.	.	.	.	.	.	.	8ee\	.	.
.	.	8f/L 8dd	.	4B-\	4BB-\	-ścią	-śród	-dług	-kóy	.	4d\	-ścią	.	8f\L	-ścią	.	8ff\L	-ścią	.
.	.	8d/J 8g 8b-	.	.	.	.	.	.	.	.	.	.	.	8g\J	.	.	16dd\L)	.	.
.	.	.	.	.	.	.	.	.	.	.	.	.	.	.	.	.	16b-\JJ	.	.
=15	=15	=15	=15	=15	=15	=15	=15	=15	=15	=15	=15	=15	=15	=15	=15	=15	=15	=15	=15
2c/	2.C/	2f/ 2a	.	2c\	2C\	i	nas	Oy-	po-	.	2c\	i	.	2f\	i	.	2a\	i	.
8.B-/L	.	8.e/L 8.g	.	4C/	4C\	z_po-	czu-	-ca	-kóy	.	8.B-\L	z_po-	.	4e\	z_po-	.	8.g\L	z_po-	.
16c/Jk	.	16a/Jk	.	.	.	.	.	.	.	.	16c\Jk	.	.	.	.	.	16a\Jk	.	.
*v	*v	*	*	*v	*v	*	*	*	*	*	*	*	*	*	*	*	*	*	*
=16	=16	=16	=16	=16	=16	=16	=16	=16	=16	=16	=16	=16	=16	=16	=16	=16	=16
!	!LO:TX:a:t=problem:nuta bb na dolnym systemie	!	!	!	!	!	!	!	!	!	!	!	!	!	!	!	!
2FF\ 2F	8.B-</L 8.e 8.g	.	4F\	-ko-	-ie-	wo-	wie-	.	8.B-\L	-ko-	.	8.e\L	-ko-	.	8.g/L	-ko-	.
!	!LO:TX:a:t=problem:nuta a na dolnym systemie	!	!	!	!	!	!	!	!	!	!	!	!	!	!	!	!
.	16A</Jk 16c 16f	.	.	.	.	.	.	.	16A\Jk	.	.	16f\Jk	.	.	16f/Jk	.	.
!	!LO:TX:a:t=problem: cyfry "2 3 4" - zapewne adnotacja dotycząca powtórzeń  - pod łukiem obejmującym cały takt	!	!	!	!	!	!	!	!	!	!	!	!	!	!	!	!
!	!LO:TX:a:t=problem:nuta a na dolnym systemie	!	!	!	!	!	!	!	!	!	!	!	!	!	!	!	!
.	8A</L 8c 8f	.	4F\	-rą	-my	-li	-czny	.	4A\	-rą	.	4f\	-rą	.	4f/	-rą	.
.	(16c/L	.	.	.	.	.	.	.	.	.	.	.	.	.	.	.	.
.	16d/JJ	.	.	.	.	.	.	.	.	.	.	.	.	.	.	.	.
4r	16e/LL	.	4r	.	.	.	.	.	4r	.	.	4r	.	.	4r	.	.
.	16f/	.	.	.	.	.	.	.	.	.	.	.	.	.	.	.	.
.	16g/	.	.	.	.	.	.	.	.	.	.	.	.	.	.	.	.
.	16g#X/JJ)	.	.	.	.	.	.	.	.	.	.	.	.	.	.	.	.
==17	==17	==17	==17	==17	==17	==17	==17	==17	==17	==17	==17	==17	==17	==17	==17	==17	==17
!	!LO:TX:a:t=problem:adnotacja "fine" pod łukiem obejmującym cały takt	!	!	!	!	!	!	!	!	!	!	!	!	!	!	!	!
2FF\ 2F	8.B-</L 8.e 8.g	.	2.ryy	.	.	.	.	.	2.ryy	.	.	2.ryy	.	.	2.ryy	.	.
.	16A</Jk 16c 16f	.	.	.	.	.	.	.	.	.	.	.	.	.	.	.	.
!	!LO:TX:a:t=fine	!	!	!	!	!	!	!	!	!	!	!	!	!	!	!	!
.	4A</ 4c 4f	.	.	.	.	.	.	.	.	.	.	.	.	.	.	.	.
4r	4r	.	.	.	.	.	.	.	.	.	.	.	.	.	.	.	.
==	==	==	==	==	==	==	==	==	==	==	==	==	==	==	==	==	==
*-	*-	*-	*-	*-	*-	*-	*-	*-	*-	*-	*-	*-	*-	*-	*-	*-	*-
!!!system-decoration: [g1]{g2}
!!!RDF**kern: > = above
!!!RDF**kern: < = below
!!!AIN: 1 alto 1 bass 1 organ 1 tenor 1 vox
!!!ENC: Anna Matuszewska
!!!END: 2020-04-02
